icons/svg/office/quango.svg

<?xml version="1.0" encoding="UTF-8" standalone="no"?>
<!-- Created with Inkscape (http://www.inkscape.org/) -->

<svg
   xmlns:dc="http://purl.org/dc/elements/1.1/"
   xmlns:cc="http://creativecommons.org/ns#"
   xmlns:rdf="http://www.w3.org/1999/02/22-rdf-syntax-ns#"
   xmlns:svg="http://www.w3.org/2000/svg"
   xmlns="http://www.w3.org/2000/svg"
   xmlns:sodipodi="http://sodipodi.sourceforge.net/DTD/sodipodi-0.dtd"
   xmlns:inkscape="http://www.inkscape.org/namespaces/inkscape"
   version="1.0"
   width="580"
   height="580"
   id="svg2"
   sodipodi:version="0.32"
   inkscape:version="0.91 r"
   sodipodi:docname="quango.svg"
   inkscape:output_extension="org.inkscape.output.svg.inkscape">
  <metadata
     id="metadata10">
    <rdf:RDF>
      <cc:Work
         rdf:about="">
        <dc:format>image/svg+xml</dc:format>
        <dc:type
           rdf:resource="http://purl.org/dc/dcmitype/StillImage" />
        <cc:license
           rdf:resource="http://web.resource.org/cc/PublicDomain" />
        <dc:language>en</dc:language>
        <dc:title></dc:title>
      </cc:Work>
    </rdf:RDF>
  </metadata>
  <sodipodi:namedview
     inkscape:window-height="1004"
     inkscape:window-width="1920"
     inkscape:pageshadow="2"
     inkscape:pageopacity="0.0"
     guidetolerance="10.0"
     gridtolerance="10.0"
     objecttolerance="10.0"
     borderopacity="1.0"
     bordercolor="#666666"
     pagecolor="#ffffff"
     id="base"
     showgrid="false"
     inkscape:zoom="0.25"
     inkscape:cx="722.92684"
     inkscape:cy="407.2422"
     inkscape:window-x="1680"
     inkscape:window-y="0"
     inkscape:current-layer="svg2"
     inkscape:window-maximized="1" />
  <defs
     id="defs4">
    <inkscape:perspective
       sodipodi:type="inkscape:persp3d"
       inkscape:vp_x="0 : 290 : 1"
       inkscape:vp_y="0 : 1000 : 0"
       inkscape:vp_z="580 : 290 : 1"
       inkscape:persp3d-origin="290 : 193.33333 : 1"
       id="perspective12" />
  </defs>
  <g
     id="g1327">
    <path
       d="M 66.275,1.768 C 24.94,1.768 1.704,23.139 1.704,66.804 L 1.704,516.927 C 1.704,557.771 22.598,579.156 63.896,579.156 L 515.92,579.156 C 557.227,579.156 578.149,558.84 578.149,516.927 L 578.149,66.804 C 578.149,24.203 557.227,1.768 514.627,1.768 C 514.624,1.768 66.133,1.625 66.275,1.768 z"
       style="fill:#111111;stroke:#eeeeee;stroke-width:3.40799999"
       id="path1329" />
  </g>
  <path
     inkscape:connector-curvature="0"
     style="color:#000000;clip-rule:nonzero;display:inline;overflow:visible;visibility:visible;opacity:1;isolation:auto;mix-blend-mode:normal;color-interpolation:sRGB;color-interpolation-filters:linearRGB;solid-color:#000000;solid-opacity:1;fill:#ffffff;fill-opacity:1;fill-rule:nonzero;stroke:none;stroke-width:25;stroke-linecap:round;stroke-linejoin:round;stroke-miterlimit:4;stroke-dasharray:none;stroke-dashoffset:0;stroke-opacity:1;marker:none;color-rendering:auto;image-rendering:auto;shape-rendering:auto;text-rendering:auto;enable-background:accumulate"
     d="m 143.29087,308.48637 c -15.16319,0 -28.17493,9.21233 -33.74414,22.34765 l -2.89258,35.31446 0,38.75586 c 0,4.71422 0.89771,9.21518 2.51954,13.35546 l -79.132816,0 0,26.78907 0,10.71679 0,92.875 24.779038,0 0,-92.875 254.074738,0 0,92.875 24.77513,0 0,-92.875 0.002,0 0,-37.50586 -79.13281,0 c 1.62182,-4.14028 2.51953,-8.64126 2.51953,-13.35546 l 0,-38.75391 -2.89258,-35.31836 c -5.5692,-13.13175 -18.58094,-22.3457 -33.74414,-22.3457 l -77.13086,0 z m -7.71289,49.17382 8.67774,0 0,60.59961 -8.67774,0 z m 83.87891,0 8.67773,0 0,60.59961 -8.67773,0 z"
     id="path4178"
     sodipodi:nodetypes="sccsccccccccccccccsccscscccccccccc" />
  <path
     inkscape:connector-curvature="0"
     style="color:#000000;clip-rule:nonzero;display:inline;overflow:visible;visibility:visible;opacity:1;isolation:auto;mix-blend-mode:normal;color-interpolation:sRGB;color-interpolation-filters:linearRGB;solid-color:#000000;solid-opacity:1;fill:#ffffff;fill-opacity:1;fill-rule:nonzero;stroke:none;stroke-width:25;stroke-linecap:round;stroke-linejoin:round;stroke-miterlimit:4;stroke-dasharray:none;stroke-dashoffset:0;stroke-opacity:1;marker:none;color-rendering:auto;image-rendering:auto;shape-rendering:auto;text-rendering:auto;enable-background:accumulate"
     d="m 181.85728,203.24223 c -24.76076,0 -44.83397,20.07127 -44.83399,44.83203 0,24.76075 20.07323,44.83203 44.83399,44.83203 24.76076,0 44.83203,-20.07128 44.83203,-44.83203 0,-24.76076 -20.07127,-44.83203 -44.83203,-44.83203 z"
     id="path4176" />
  <g
     id="g15"
     transform="matrix(1.0666685,0,0,1.0666685,-28.180927,-20.362751)">
    <circle
       style="fill:#ffffff"
       id="circle17"
       r="30.958"
       cy="113.324"
       cx="396.18799" />
    <circle
       style="fill:#ffffff"
       id="circle19"
       r="30.958"
       cy="76.705002"
       cx="294.32599" />
    <circle
       style="fill:#ffffff"
       id="circle21"
       r="30.958"
       cy="76.705002"
       cx="498.04901" />
    <path
       style="fill:#ffffff"
       inkscape:connector-curvature="0"
       id="path23"
       d="m 524.68,118.422 -53.262,0 c -13.973,0 -25.298,11.326 -25.298,25.298 l 0,26.75 c -3.847,-9.069 -12.831,-15.429 -23.302,-15.429 l -53.263,0 c -10.471,0 -19.455,6.36 -23.3,15.43 l 0,-26.751 c 0,-13.972 -11.327,-25.298 -25.299,-25.298 l -53.263,0 c -13.972,0 -25.298,11.326 -25.298,25.298 l 0,41.279 c 0,12.145 8.559,22.286 19.972,24.732 l 0,-57.355 5.992,0 0,79.505 51.929,0 0,-79.505 5.993,0 0,57.355 c 8.125,-1.742 14.801,-7.386 17.975,-14.875 l 0,26.762 c 0,12.144 8.559,22.286 19.973,24.731 l 0,-57.354 5.992,0 0,79.505 51.93,0 0,-79.505 5.992,0 0,57.354 c 11.413,-2.446 19.972,-12.587 19.972,-24.731 l 0,-26.761 c 3.174,7.489 9.851,13.132 17.976,14.874 l 0,-57.355 5.992,0 0,79.505 51.93,0 0,-79.505 5.992,0 0,57.355 c 11.414,-2.447 19.973,-12.588 19.973,-24.732 l 0,-41.279 c 0.001,-13.971 -11.326,-25.298 -25.298,-25.298 z" />
  </g>
  <path
     style="fill:#ffffff"
     inkscape:connector-curvature="0"
     id="path25"
     d="m 202.51499,32.045106 c -0.74053,-0.457827 -1.75961,-0.503334 -2.53322,-0.117215 -0.16134,0.07998 -16.28456,7.894749 -29.20299,7.894749 -6.27994,0 -12.93636,-2.400831 -19.77066,-5.076082 l -1.36244,-0.535051 c -6.39716,-2.515287 -12.43854,-4.892676 -18.56817,-4.892676 -6.16411,0 -13.42453,2.384284 -21.1138,4.909225 l -1.44381,0.472995 c -8.24502,2.698694 -16.11771,5.121589 -21.810201,5.121589 -6.506098,0 -14.660099,-3.19789 -18.94188,-5.103662 -3.789478,-1.686512 -6.926693,-3.381297 -8.571834,-4.307982 -0.252357,-1.179041 -1.348659,-2.102968 -2.5539,-2.102968 l -6.250986,0 c -1.388649,0 -2.607681,1.219032 -2.60906,2.607681 l 0,197.633491 c 0.0014,1.38864 1.220411,2.60768 2.60906,2.60768 l 13.742734,0 0.0014,0 c 1.387269,0 2.607807,-1.21904 2.607681,-2.60768 l -0.0072,-79.94105 c 7.484498,4.15284 14.782142,6.19651 19.97406,6.19651 6.985989,0 15.178606,-2.68076 23.100936,-5.27465 l 0.32682,-0.10756 c 7.3335,-2.39944 15.64608,-5.12021 20.94005,-5.12021 5.05264,0 11.24294,2.42289 17.7987,4.98783 l 0.22338,0.0869 c 6.1779,2.41738 13.86856,5.42773 21.67919,5.42773 14.78698,0 31.36801,-8.36223 31.53074,-8.44497 0.86049,-0.43163 1.44105,-1.36796 1.44242,-2.3305 l 0,-109.768041 c -0.001,-0.882556 -0.48816,-1.752702 -1.23695,-2.216045 z"
     sodipodi:nodetypes="ccsccsccsccssccscsscsccsccsccccc" />
</svg>

<svg width="580" height="580" viewBox="0 0 580 580" fill="none" xmlns="http://www.w3.org/2000/svg">
<g clip-path="url(#clip0)">
<path d="M66.2751 1.7679C24.9401 1.7679 1.7041 23.1389 1.7041 66.8039V516.927C1.7041 557.771 22.5981 579.156 63.8961 579.156H515.92C557.227 579.156 578.149 558.84 578.149 516.927V66.8039C578.149 24.2029 557.227 1.7679 514.627 1.7679C514.624 1.7679 66.1331 1.6249 66.2751 1.7679Z" fill="#111111" stroke="#EEEEEE" stroke-width="3.408"/>
<path d="M143.291 308.486C128.128 308.486 115.116 317.699 109.547 330.834L106.654 366.148V404.904C106.654 409.619 107.552 414.119 109.174 418.26H30.0408V445.049V455.766V548.641H54.8198V455.766H308.895V548.641H333.67V455.766H333.672V418.26H254.539C256.161 414.119 257.058 409.618 257.058 404.904V366.15L254.166 330.832C248.597 317.7 235.585 308.486 220.422 308.486H143.291H143.291ZM135.578 357.66H144.256V418.26H135.578V357.66ZM219.457 357.66H228.135V418.26H219.457V357.66Z" fill="white"/>
<path d="M181.857 203.242C157.096 203.242 137.023 223.313 137.023 248.074C137.023 272.835 157.096 292.906 181.857 292.906C206.618 292.906 226.689 272.835 226.689 248.074C226.689 223.313 206.618 203.242 181.857 203.242Z" fill="white"/>
<path d="M394.42 133.538C412.658 133.538 427.442 118.754 427.442 100.516C427.442 82.2788 412.658 67.4944 394.42 67.4944C376.183 67.4944 361.398 82.2788 361.398 100.516C361.398 118.754 376.183 133.538 394.42 133.538Z" fill="white"/>
<path d="M285.768 94.4779C304.005 94.4779 318.789 79.6935 318.789 61.456C318.789 43.2185 304.005 28.4341 285.768 28.4341C267.53 28.4341 252.746 43.2185 252.746 61.456C252.746 79.6935 267.53 94.4779 285.768 94.4779Z" fill="white"/>
<path d="M503.072 94.4779C521.31 94.4779 536.094 79.6935 536.094 61.456C536.094 43.2185 521.31 28.4341 503.072 28.4341C484.835 28.4341 470.05 43.2185 470.05 61.456C470.05 79.6935 484.835 94.4779 503.072 94.4779Z" fill="white"/>
<path d="M531.479 105.954H474.666C459.761 105.954 447.681 118.035 447.681 132.939V161.472C443.578 151.798 433.995 145.014 422.826 145.014H366.012C354.843 145.014 345.26 151.798 341.158 161.473V132.939C341.158 118.035 329.076 105.954 314.173 105.954H257.359C242.455 105.954 230.374 118.035 230.374 132.939V176.97C230.374 189.924 239.504 200.741 251.678 203.351V142.172H258.069V226.977H313.46V142.172H319.853V203.351C328.52 201.492 335.641 195.472 339.026 187.484V216.03C339.026 228.984 348.156 239.802 360.331 242.41V181.232H366.722V266.038H422.114V181.232H428.506V242.41C440.68 239.801 449.809 228.984 449.809 216.03V187.485C453.195 195.473 460.317 201.492 468.984 203.351V142.172H475.375V226.977H530.767V142.172H537.159V203.351C549.334 200.74 558.463 189.923 558.463 176.97V132.939C558.464 118.036 546.382 105.954 531.479 105.954Z" fill="white"/>
<path d="M202.515 32.0452C201.774 31.5874 200.755 31.5418 199.982 31.928C199.82 32.0079 183.697 39.8227 170.779 39.8227C164.499 39.8227 157.842 37.4219 151.008 34.7466L149.646 34.2116C143.248 31.6963 137.207 29.3189 131.077 29.3189C124.913 29.3189 117.653 31.7032 109.964 34.2281L108.52 34.7011C100.275 37.3998 92.4021 39.8227 86.7096 39.8227C80.2035 39.8227 72.0495 36.6248 67.7678 34.7191C63.9783 33.0325 60.8411 31.3378 59.1959 30.4111C58.9436 29.232 57.8473 28.3081 56.642 28.3081H50.391C49.0024 28.3081 47.7834 29.5271 47.782 30.9158V228.549C47.7834 229.938 49.0024 231.157 50.391 231.157H64.1338H64.1352C65.5224 231.157 66.743 229.938 66.7429 228.549L66.7357 148.608C74.2202 152.761 81.5178 154.805 86.7097 154.805C93.6957 154.805 101.888 152.124 109.811 149.53L110.137 149.423C117.471 147.023 125.784 144.302 131.078 144.302C136.13 144.302 142.32 146.725 148.876 149.29L149.1 149.377C155.277 151.794 162.968 154.805 170.779 154.805C185.566 154.805 202.147 146.443 202.31 146.36C203.17 145.928 203.751 144.992 203.752 144.029V34.2613C203.751 33.3787 203.264 32.5086 202.515 32.0452L202.515 32.0452Z" fill="white"/>
</g>
<defs>
<clipPath id="clip0">
<path d="M0 0H580V580H0V0Z" fill="white"/>
</clipPath>
</defs>
</svg>
